!! 00010] TT[TB
!! Eigene Aufnahme
!!!OTL: Shaqiu shang de xianghui The white peak of sand dunes
!!!ARE: Neimeng
!! Ethnic Group: Menggu
!! MM, S. 684
!!!SCT: C0556
!!!YEM: Copyright 1995, estate of Helmut Schaffrath.
**kern
*ICvox
*Ivox
*M2/4
*k[]
*C:
{8a
8cc
4a
=1
8d
8e
4a
=2
8a
8g
4e
=3
8e
8c
4A}
=4
{8a
8cc
4a
=5
8d
8e
4a
=6
8g
[4.e
=7
2e]}
=8
{8a
8cc
4a
=9
8d
8e
4a
=10
8a
8g
4e
=11
8e
8c
4A}
=12
{8e
16e
16d
8c
8a
=13
8g
8e
8e
8c
=14
8c
[4.A
=15
2A]}
==
!!!AGN: NN
!! Saenger: Chao Lun Batou, der das Buch nur zum Nachschlagen
!!    benutzte und ansonsten auswendig sang. Da er aus dem Osten der
!!    Neimeng kommt, kennt er nicht so viele Lieder des Westens.
!!    Alle Lieder wurden mit erkaelteter, halber Stimme in meinem
!!    Zimmer gesungen. FOTO VORHANDEN (DIAS)  31.3.87  VARIANTE
!!!ONB: ESAC (Essen Associative Code) Database: CHINA
!!!AMT: simple duple
!!!AIN: vox
!!!EED: Helmut Schaffrath
!!!EEV: 1.0
*-
!!!ONB: Tied note syntax fixed by Craig Sapp, 2004/05/03/
